X:800
T:George White's Favourite
T:Carrowcastle Lasses
R:reel
S:Matt Molloy & Sean Keane: Contentment is Wealth
N:Played in G or in D
D:Matt Molloy & Sean Keane: Contentment is Wealth
D:Kevin Crawford: 'd' flute album
Z:id:hn-reel-472
M:C|
L:1/8
Q:1/4=200
K:G
Bd|eB~B2 eBdB|AGAB GEDE|GB~B2 eB~B2|eBdB A2Bd|
eB~B2 eBdB|AGAB GEDE|GABd gedB|AGAB G2:|
e|:gede gaba|gfga gedB|dega bgag|eaab a2ga|
bgeg d2de|gede gaba|~g3d egdB|AGAB G2:|]
